badges/stitcher-light.svg

<svg width="111" height="40" viewBox="0 0 111 40" fill="none" xmlns="http://www.w3.org/2000/svg">
<rect x="0.5" y="0.5" width="110" height="39" rx="4.5" fill="white"/>
<mask id="mask0_109_1561" style="mask-type:luminance" maskUnits="userSpaceOnUse" x="8" y="8" width="24" height="24">
<path fill-rule="evenodd" clip-rule="evenodd" d="M10.5247 29.4753C8.68315 27.6337 8 24.6338 8 20C8 15.3663 8.68315 12.3663 10.5247 10.5247C12.3663 8.68315 15.3663 8 20 8C24.6338 8 27.6337 8.68315 29.4753 10.5247C31.3169 12.3663 32 15.3663 32 20C32 24.6338 31.3169 27.6337 29.4753 29.4753C27.6337 31.3169 24.6338 32 20 32C15.3663 32 12.3663 31.3169 10.5247 29.4753Z" fill="white"/>
</mask>
<g mask="url(#mask0_109_1561)">
<rect x="8.00012" y="7.99988" width="24" height="24" fill="white"/>
<rect x="8.00012" y="16.8456" width="4.22765" height="7.60975" fill="#3291C6"/>
<rect x="12.9106" y="15.4794" width="4.2927" height="8.4553" fill="#621E69"/>
<rect x="17.9188" y="16.1953" width="4.26015" height="8.74795" fill="#FBC700"/>
<rect x="22.8293" y="14.8945" width="4.2927" height="9.04065" fill="#ED8B01"/>
<rect x="27.8051" y="16.455" width="4.1951" height="6.92685" fill="#C5361E"/>
</g>
<path d="M39.7486 14.5V8.31818H40.4972V13.8359H43.3707V14.5H39.7486ZM44.4332 14.5V9.86364H45.1456V14.5H44.4332ZM44.7955 9.09091C44.6566 9.09091 44.5369 9.04362 44.4363 8.94904C44.3377 8.85446 44.2884 8.74077 44.2884 8.60795C44.2884 8.47514 44.3377 8.36145 44.4363 8.26687C44.5369 8.17229 44.6566 8.125 44.7955 8.125C44.9343 8.125 45.053 8.17229 45.1516 8.26687C45.2522 8.36145 45.3026 8.47514 45.3026 8.60795C45.3026 8.74077 45.2522 8.85446 45.1516 8.94904C45.053 9.04362 44.9343 9.09091 44.7955 9.09091ZM49.7344 10.902L49.0945 11.0831C49.0543 10.9764 48.9949 10.8728 48.9164 10.7722C48.8399 10.6696 48.7353 10.585 48.6025 10.5186C48.4697 10.4522 48.2996 10.419 48.0924 10.419C47.8086 10.419 47.5722 10.4844 47.383 10.6152C47.1959 10.744 47.1023 10.908 47.1023 11.1072C47.1023 11.2843 47.1667 11.4242 47.2955 11.5268C47.4243 11.6294 47.6255 11.715 47.8992 11.7834L48.5874 11.9524C49.0019 12.053 49.3108 12.207 49.5141 12.4142C49.7173 12.6195 49.8189 12.8841 49.8189 13.2081C49.8189 13.4737 49.7425 13.7112 49.5895 13.9205C49.4386 14.1297 49.2273 14.2947 48.9557 14.4155C48.684 14.5362 48.3681 14.5966 48.0079 14.5966C47.535 14.5966 47.1436 14.494 46.8337 14.2887C46.5238 14.0835 46.3276 13.7836 46.2451 13.3892L46.9212 13.2202C46.9856 13.4697 47.1073 13.6568 47.2864 13.7816C47.4676 13.9064 47.704 13.9688 47.9958 13.9688C48.3278 13.9688 48.5914 13.8983 48.7866 13.7575C48.9838 13.6146 49.0824 13.4435 49.0824 13.2443C49.0824 13.0833 49.0261 12.9485 48.9134 12.8398C48.8007 12.7292 48.6276 12.6467 48.3942 12.5923L47.6215 12.4112C47.1969 12.3106 46.885 12.1547 46.6858 11.9434C46.4886 11.7301 46.39 11.4634 46.39 11.1435C46.39 10.8819 46.4634 10.6504 46.6103 10.4492C46.7592 10.248 46.9615 10.09 47.217 9.97532C47.4746 9.86062 47.7664 9.80327 48.0924 9.80327C48.5512 9.80327 48.9114 9.90388 49.173 10.1051C49.4366 10.3063 49.6237 10.572 49.7344 10.902ZM52.9076 9.86364V10.4673H50.5049V9.86364H52.9076ZM51.2052 8.75284H51.9175V13.1719C51.9175 13.3731 51.9467 13.524 52.0051 13.6246C52.0654 13.7232 52.1419 13.7897 52.2345 13.8239C52.329 13.8561 52.4287 13.8722 52.5333 13.8722C52.6118 13.8722 52.6762 13.8681 52.7265 13.8601C52.7768 13.85 52.817 13.842 52.8472 13.8359L52.9921 14.4759C52.9438 14.494 52.8764 14.5121 52.7899 14.5302C52.7033 14.5503 52.5937 14.5604 52.4608 14.5604C52.2596 14.5604 52.0624 14.5171 51.8692 14.4306C51.6781 14.344 51.5191 14.2122 51.3923 14.0352C51.2675 13.8581 51.2052 13.6347 51.2052 13.3651V8.75284ZM55.8732 14.5966C55.4265 14.5966 55.0411 14.498 54.7172 14.3008C54.3952 14.1016 54.1467 13.8239 53.9716 13.4677C53.7985 13.1095 53.712 12.6929 53.712 12.218C53.712 11.7431 53.7985 11.3246 53.9716 10.9624C54.1467 10.5981 54.3902 10.3144 54.7021 10.1112C55.016 9.90589 55.3822 9.80327 55.8008 9.80327C56.0423 9.80327 56.2807 9.84351 56.5162 9.92401C56.7516 10.0045 56.9659 10.1353 57.1591 10.3164C57.3523 10.4955 57.5062 10.733 57.6209 11.0288C57.7356 11.3246 57.793 11.6888 57.793 12.1214V12.4233H54.2191V11.8075H57.0685C57.0685 11.5459 57.0162 11.3125 56.9116 11.1072C56.8089 10.902 56.6621 10.74 56.4709 10.6213C56.2817 10.5025 56.0584 10.4432 55.8008 10.4432C55.517 10.4432 55.2715 10.5136 55.0643 10.6545C54.859 10.7933 54.7011 10.9744 54.5904 11.1978C54.4797 11.4212 54.4244 11.6606 54.4244 11.9162V12.3267C54.4244 12.6768 54.4847 12.9737 54.6055 13.2172C54.7282 13.4586 54.8983 13.6428 55.1156 13.7695C55.3329 13.8943 55.5855 13.9567 55.8732 13.9567C56.0604 13.9567 56.2294 13.9305 56.3803 13.8782C56.5333 13.8239 56.6651 13.7434 56.7757 13.6367C56.8864 13.5281 56.9719 13.3932 57.0323 13.2322L57.7205 13.4254C57.6481 13.6589 57.5263 13.8641 57.3553 14.0412C57.1842 14.2163 56.973 14.3531 56.7214 14.4517C56.4699 14.5483 56.1871 14.5966 55.8732 14.5966ZM59.589 11.7109V14.5H58.8766V9.86364H59.5648V10.5881H59.6252C59.7338 10.3526 59.8989 10.1635 60.1202 10.0206C60.3416 9.87571 60.6273 9.80327 60.9775 9.80327C61.2914 9.80327 61.5661 9.86766 61.8015 9.99645C62.0369 10.1232 62.2201 10.3164 62.3509 10.576C62.4817 10.8336 62.5471 11.1596 62.5471 11.554V14.5H61.8347V11.6023C61.8347 11.238 61.7401 10.9543 61.551 10.7511C61.3618 10.5458 61.1022 10.4432 60.7722 10.4432C60.5448 10.4432 60.3416 10.4925 60.1625 10.5911C59.9854 10.6897 59.8455 10.8336 59.7429 11.0227C59.6403 11.2119 59.589 11.4413 59.589 11.7109ZM68.1229 14.5966C67.7044 14.5966 67.3371 14.497 67.0212 14.2978C66.7073 14.0985 66.4618 13.8198 66.2847 13.4616C66.1096 13.1035 66.0221 12.6849 66.0221 12.206C66.0221 11.723 66.1096 11.3014 66.2847 10.9412C66.4618 10.581 66.7073 10.3013 67.0212 10.1021C67.3371 9.90288 67.7044 9.80327 68.1229 9.80327C68.5415 9.80327 68.9077 9.90288 69.2216 10.1021C69.5376 10.3013 69.7831 10.581 69.9581 10.9412C70.1352 11.3014 70.2238 11.723 70.2238 12.206C70.2238 12.6849 70.1352 13.1035 69.9581 13.4616C69.7831 13.8198 69.5376 14.0985 69.2216 14.2978C68.9077 14.497 68.5415 14.5966 68.1229 14.5966ZM68.1229 13.9567C68.4409 13.9567 68.7025 13.8752 68.9077 13.7122C69.113 13.5492 69.2649 13.3349 69.3635 13.0692C69.4621 12.8036 69.5114 12.5159 69.5114 12.206C69.5114 11.8961 69.4621 11.6073 69.3635 11.3397C69.2649 11.072 69.113 10.8557 68.9077 10.6907C68.7025 10.5257 68.4409 10.4432 68.1229 10.4432C67.805 10.4432 67.5434 10.5257 67.3381 10.6907C67.1329 10.8557 66.9809 11.072 66.8823 11.3397C66.7837 11.6073 66.7344 11.8961 66.7344 12.206C66.7344 12.5159 66.7837 12.8036 66.8823 13.0692C66.9809 13.3349 67.1329 13.5492 67.3381 13.7122C67.5434 13.8752 67.805 13.9567 68.1229 13.9567ZM72.0235 11.7109V14.5H71.3112V9.86364H71.9994V10.5881H72.0597C72.1684 10.3526 72.3334 10.1635 72.5548 10.0206C72.7761 9.87571 73.0619 9.80327 73.412 9.80327C73.7259 9.80327 74.0006 9.86766 74.2361 9.99645C74.4715 10.1232 74.6546 10.3164 74.7854 10.576C74.9162 10.8336 74.9816 11.1596 74.9816 11.554V14.5H74.2693V11.6023C74.2693 11.238 74.1747 10.9543 73.9855 10.7511C73.7964 10.5458 73.5368 10.4432 73.2068 10.4432C72.9794 10.4432 72.7761 10.4925 72.597 10.5911C72.42 10.6897 72.2801 10.8336 72.1775 11.0227C72.0748 11.2119 72.0235 11.4413 72.0235 11.7109Z" fill="black"/>
<path d="M46.5014 20.9545C46.4268 20.3248 46.1244 19.8359 45.5941 19.4879C45.0638 19.1399 44.4134 18.9659 43.6428 18.9659C43.0793 18.9659 42.5863 19.0571 42.1637 19.2393C41.7453 19.4216 41.418 19.6723 41.1818 19.9913C40.9498 20.3103 40.8338 20.6728 40.8338 21.0788C40.8338 21.4186 40.9146 21.7106 41.0762 21.9551C41.2419 22.1954 41.4532 22.3963 41.71 22.5579C41.9669 22.7153 42.2362 22.8458 42.5179 22.9494C42.7997 23.0488 43.0586 23.1296 43.2947 23.1918L44.5874 23.5398C44.9188 23.6268 45.2875 23.7469 45.6935 23.9002C46.1037 24.0535 46.4952 24.2627 46.8681 24.5279C47.2451 24.7889 47.5558 25.1245 47.8002 25.5346C48.0447 25.9448 48.1669 26.4482 48.1669 27.0447C48.1669 27.7325 47.9867 28.3539 47.6262 28.9091C47.2699 29.4643 46.7479 29.9055 46.0602 30.2328C45.3766 30.5601 44.5459 30.7237 43.5682 30.7237C42.6567 30.7237 41.8675 30.5766 41.2005 30.2825C40.5376 29.9883 40.0156 29.5782 39.6344 29.052C39.2574 28.5259 39.044 27.9148 38.9943 27.2188H40.5852C40.6267 27.6993 40.7882 28.0971 41.07 28.4119C41.3558 28.7227 41.7163 28.9547 42.1513 29.108C42.5904 29.2571 43.0627 29.3317 43.5682 29.3317C44.1565 29.3317 44.6847 29.2364 45.1529 29.0458C45.621 28.8511 45.9918 28.5818 46.2653 28.2379C46.5387 27.8899 46.6754 27.4839 46.6754 27.0199C46.6754 26.5973 46.5574 26.2534 46.3212 25.9883C46.085 25.7231 45.7743 25.5077 45.389 25.342C45.0037 25.1763 44.5874 25.0312 44.1399 24.907L42.5739 24.4595C41.5795 24.1737 40.7924 23.7656 40.2124 23.2353C39.6323 22.705 39.3423 22.011 39.3423 21.1534C39.3423 20.4408 39.535 19.8194 39.9203 19.2891C40.3097 18.7546 40.8317 18.3403 41.4863 18.0462C42.1451 17.7479 42.8804 17.5987 43.6925 17.5987C44.5128 17.5987 45.242 17.7458 45.88 18.0399C46.518 18.33 47.0234 18.7277 47.3963 19.2331C47.7733 19.7386 47.9722 20.3124 47.9929 20.9545H46.5014ZM54.4033 20.9545V22.1974H49.4565V20.9545H54.4033ZM50.8983 18.6676H52.3649V27.7656C52.3649 28.1799 52.425 28.4906 52.5451 28.6978C52.6694 28.9008 52.8269 29.0375 53.0174 29.108C53.2122 29.1742 53.4172 29.2074 53.6327 29.2074C53.7943 29.2074 53.9268 29.1991 54.0304 29.1825C54.134 29.1618 54.2168 29.1452 54.279 29.1328L54.5773 30.4503C54.4778 30.4876 54.3391 30.5249 54.1609 30.5621C53.9828 30.6036 53.757 30.6243 53.4835 30.6243C53.0692 30.6243 52.6632 30.5352 52.2655 30.3571C51.8719 30.1789 51.5446 29.9076 51.2836 29.543C51.0267 29.1784 50.8983 28.7185 50.8983 28.1634V18.6676ZM56.3594 30.5V20.9545H57.826V30.5H56.3594ZM57.1052 19.3636C56.8193 19.3636 56.5728 19.2663 56.3656 19.0716C56.1626 18.8768 56.0611 18.6428 56.0611 18.3693C56.0611 18.0959 56.1626 17.8618 56.3656 17.6671C56.5728 17.4724 56.8193 17.375 57.1052 17.375C57.391 17.375 57.6355 17.4724 57.8385 17.6671C58.0456 17.8618 58.1492 18.0959 58.1492 18.3693C58.1492 18.6428 58.0456 18.8768 57.8385 19.0716C57.6355 19.2663 57.391 19.3636 57.1052 19.3636ZM64.4135 20.9545V22.1974H59.4668V20.9545H64.4135ZM60.9086 18.6676H62.3752V27.7656C62.3752 28.1799 62.4353 28.4906 62.5554 28.6978C62.6797 28.9008 62.8371 29.0375 63.0277 29.108C63.2224 29.1742 63.4275 29.2074 63.6429 29.2074C63.8045 29.2074 63.9371 29.1991 64.0407 29.1825C64.1442 29.1618 64.2271 29.1452 64.2892 29.1328L64.5875 30.4503C64.4881 30.4876 64.3493 30.5249 64.1712 30.5621C63.993 30.6036 63.7672 30.6243 63.4938 30.6243C63.0795 30.6243 62.6735 30.5352 62.2757 30.3571C61.8822 30.1789 61.5549 29.9076 61.2939 29.543C61.037 29.1784 60.9086 28.7185 60.9086 28.1634V18.6676ZM70.145 30.6989C69.2501 30.6989 68.4795 30.4876 67.8332 30.065C67.1869 29.6424 66.6897 29.0603 66.3417 28.3187C65.9937 27.5771 65.8197 26.7299 65.8197 25.777C65.8197 24.8075 65.9978 23.952 66.3541 23.2104C66.7146 22.4647 67.2159 21.8826 67.858 21.4641C68.5044 21.0415 69.2584 20.8303 70.1201 20.8303C70.7913 20.8303 71.3962 20.9545 71.9347 21.2031C72.4733 21.4517 72.9146 21.7997 73.2584 22.2472C73.6023 22.6946 73.8157 23.2166 73.8985 23.8132H72.4319C72.32 23.3782 72.0715 22.9929 71.6862 22.6573C71.305 22.3176 70.7913 22.1477 70.145 22.1477C69.5732 22.1477 69.0719 22.2969 68.6411 22.5952C68.2143 22.8893 67.8808 23.3057 67.6405 23.8443C67.4044 24.3787 67.2863 25.0064 67.2863 25.7273C67.2863 26.4647 67.4023 27.1069 67.6343 27.6538C67.8705 28.2006 68.2019 28.6253 68.6286 28.9277C69.0595 29.2302 69.565 29.3814 70.145 29.3814C70.5261 29.3814 70.8721 29.3151 71.1828 29.1825C71.4935 29.05 71.7566 28.8594 71.972 28.6108C72.1875 28.3622 72.3408 28.0639 72.4319 27.7159H73.8985C73.8157 28.2794 73.6106 28.7869 73.2833 29.2385C72.9601 29.6859 72.5313 30.0422 71.9969 30.3074C71.4666 30.5684 70.8493 30.6989 70.145 30.6989ZM77.2591 24.7578V30.5H75.7925V17.7727H77.2591V22.446H77.3834C77.6072 21.953 77.9427 21.5615 78.3902 21.2715C78.8418 20.9773 79.4425 20.8303 80.1924 20.8303C80.8428 20.8303 81.4125 20.9608 81.9014 21.2218C82.3902 21.4786 82.7693 21.8743 83.0386 22.4087C83.3121 22.939 83.4488 23.6143 83.4488 24.4347V30.5H81.9822V24.5341C81.9822 23.7759 81.7854 23.1897 81.3918 22.7754C81.0023 22.3569 80.4617 22.1477 79.7698 22.1477C79.2892 22.1477 78.8583 22.2492 78.4772 22.4522C78.1002 22.6552 77.8019 22.9515 77.5823 23.3409C77.3669 23.7303 77.2591 24.2027 77.2591 24.7578ZM89.884 30.6989C88.9643 30.6989 88.1709 30.4959 87.5039 30.0898C86.841 29.6797 86.3293 29.108 85.9689 28.3746C85.6126 27.6372 85.4344 26.7796 85.4344 25.8018C85.4344 24.8241 85.6126 23.9624 85.9689 23.2166C86.3293 22.4667 86.8306 21.8826 87.4728 21.4641C88.1191 21.0415 88.8731 20.8303 89.7349 20.8303C90.232 20.8303 90.723 20.9131 91.2077 21.0788C91.6924 21.2446 92.1337 21.5138 92.5314 21.8867C92.9291 22.2554 93.246 22.7443 93.4822 23.3533C93.7184 23.9624 93.8364 24.7122 93.8364 25.603V26.2244H86.4785V24.9567H92.3449C92.3449 24.4181 92.2372 23.9375 92.0218 23.5149C91.8105 23.0923 91.5081 22.7588 91.1145 22.5144C90.725 22.2699 90.2652 22.1477 89.7349 22.1477C89.1507 22.1477 88.6453 22.2927 88.2185 22.5827C87.7959 22.8686 87.4707 23.2415 87.2429 23.7013C87.015 24.1612 86.9011 24.6542 86.9011 25.1804V26.0256C86.9011 26.7464 87.0253 27.3575 87.2739 27.8588C87.5266 28.356 87.8767 28.7351 88.3242 28.9961C88.7716 29.253 89.2916 29.3814 89.884 29.3814C90.2693 29.3814 90.6173 29.3275 90.928 29.2198C91.2429 29.108 91.5143 28.9422 91.7421 28.7227C91.97 28.4989 92.1461 28.2214 92.2704 27.8899L93.6873 28.2876C93.5381 28.7682 93.2875 29.1908 92.9353 29.5554C92.5832 29.9158 92.1482 30.1976 91.6303 30.4006C91.1124 30.5994 90.5303 30.6989 89.884 30.6989ZM95.8174 30.5V20.9545H97.2343V22.3963H97.3338C97.5078 21.924 97.8226 21.5408 98.2784 21.2466C98.7341 20.9525 99.2478 20.8054 99.8196 20.8054C99.9273 20.8054 100.062 20.8075 100.223 20.8116C100.385 20.8158 100.507 20.822 100.59 20.8303V22.3217C100.54 22.3093 100.427 22.2907 100.248 22.2658C100.074 22.2368 99.89 22.2223 99.6953 22.2223C99.2313 22.2223 98.817 22.3197 98.4524 22.5144C98.0919 22.705 97.8061 22.9701 97.5948 23.3098C97.3876 23.6454 97.284 24.0286 97.284 24.4595V30.5H95.8174Z" fill="black"/>
<rect x="0.5" y="0.5" width="110" height="39" rx="4.5" stroke="#A6A6A6"/>
</svg>

<svg xmlns="http://www.w3.org/2000/svg" width="111" height="40" fill="none" viewBox="0 0 111 40">
  <rect width="110" height="39" x=".5" y=".5" fill="#fff" rx="4.5"/>
  <rect width="110" height="39" x=".5" y=".5" stroke="#A6A6A6" rx="4.5"/>
  <path fill="#3291C6" d="M8 16.846h4.228v7.61H8z"/>
  <path fill="#621E69" d="M12.911 15.479h4.293v8.455h-4.293z"/>
  <path fill="#FBC700" d="M17.919 16.195h4.26v8.748h-4.26z"/>
  <path fill="#ED8B01" d="M22.829 14.895h4.293v9.041h-4.293z"/>
  <path fill="#C5361E" d="M27.805 16.455H32v6.927h-4.195z"/>
  <path fill="#000" d="M39.749 14.5V8.318h.748v5.518h2.874v.664h-3.622Zm4.684 0V9.864h.713V14.5h-.713Zm.362-5.41a.506.506 0 0 1-.359-.141.456.456 0 0 1-.148-.341c0-.133.05-.247.148-.341.1-.095.22-.142.36-.142.138 0 .257.047.356.142.1.094.15.208.15.341 0 .133-.05.246-.15.341a.496.496 0 0 1-.357.142Zm4.94 1.812-.64.181c-.04-.107-.1-.21-.179-.31a.865.865 0 0 0-.313-.254 1.14 1.14 0 0 0-.51-.1c-.284 0-.52.065-.71.196-.187.129-.28.293-.28.492a.51.51 0 0 0 .192.42c.13.102.33.188.604.256l.688.17c.415.1.724.254.927.461.203.206.305.47.305.794 0 .266-.077.503-.23.713-.15.209-.362.374-.633.495a2.33 2.33 0 0 1-.948.18c-.473 0-.864-.102-1.174-.307-.31-.205-.506-.505-.589-.9l.676-.169c.065.25.186.437.365.562.182.124.418.187.71.187.332 0 .595-.07.79-.211.198-.143.296-.314.296-.514a.54.54 0 0 0-.169-.404c-.112-.11-.285-.193-.519-.248l-.773-.18c-.424-.101-.736-.257-.935-.469a1.133 1.133 0 0 1-.296-.8c0-.261.073-.493.22-.694a1.5 1.5 0 0 1 .607-.474 2.13 2.13 0 0 1 .875-.172c.46 0 .82.1 1.081.302.264.201.45.467.561.797Zm3.173-1.038v.603h-2.403v-.603h2.403Zm-1.703-1.111h.712v4.419c0 .201.03.352.088.453.06.098.137.165.23.199a.92.92 0 0 0 .298.048c.079 0 .143-.004.194-.012l.12-.024.145.64a1.491 1.491 0 0 1-.531.085c-.201 0-.399-.044-.592-.13a1.177 1.177 0 0 1-.477-.396c-.125-.177-.187-.4-.187-.67V8.753Zm4.668 5.844c-.447 0-.832-.099-1.156-.296a1.99 1.99 0 0 1-.745-.833c-.174-.358-.26-.775-.26-1.25s.086-.893.26-1.256c.175-.364.418-.648.73-.85.314-.206.68-.309 1.099-.309.241 0 .48.04.715.121.236.08.45.211.643.392.193.18.347.417.462.713.115.296.172.66.172 1.092v.302h-3.574v-.616h2.85a1.52 1.52 0 0 0-.157-.7 1.183 1.183 0 0 0-.441-.486 1.234 1.234 0 0 0-.67-.178c-.284 0-.53.07-.737.212a1.39 1.39 0 0 0-.474.543c-.11.223-.166.463-.166.718v.41c0 .35.06.648.181.891.123.242.293.426.51.553.218.124.47.187.758.187.187 0 .356-.027.507-.079.153-.054.285-.135.396-.241.11-.109.196-.244.256-.405l.689.193a1.526 1.526 0 0 1-.366.616 1.78 1.78 0 0 1-.634.41 2.35 2.35 0 0 1-.848.146Zm3.716-2.886V14.5h-.712V9.864h.688v.724h.06a1.33 1.33 0 0 1 .495-.567c.222-.145.507-.218.858-.218.313 0 .588.065.823.193.236.127.42.32.55.58.13.258.196.584.196.978V14.5h-.712v-2.898c0-.364-.095-.648-.284-.85-.19-.206-.449-.309-.779-.309-.227 0-.43.05-.61.148a1.058 1.058 0 0 0-.42.432 1.43 1.43 0 0 0-.153.688Zm8.534 2.886c-.419 0-.786-.1-1.102-.3a2.018 2.018 0 0 1-.736-.835c-.175-.358-.263-.777-.263-1.256 0-.483.088-.905.263-1.265.177-.36.422-.64.736-.839.316-.2.683-.299 1.102-.299.418 0 .785.1 1.099.3.316.198.561.478.736.838.177.36.266.782.266 1.265 0 .479-.089.898-.266 1.256-.175.358-.42.636-.736.836a2.01 2.01 0 0 1-1.1.299Zm0-.64c.318 0 .58-.082.785-.245a1.44 1.44 0 0 0 .456-.643 2.47 2.47 0 0 0 .147-.863c0-.31-.049-.599-.147-.866a1.46 1.46 0 0 0-.456-.65c-.206-.164-.467-.247-.785-.247s-.58.083-.785.248a1.46 1.46 0 0 0-.456.649 2.487 2.487 0 0 0-.148.866c0 .31.05.598.148.863.099.266.25.48.456.643.205.163.467.245.785.245Zm3.9-2.246V14.5h-.712V9.864H72v.724h.06c.11-.235.274-.424.496-.567.221-.145.507-.218.857-.218.314 0 .589.065.824.193a1.3 1.3 0 0 1 .55.58c.13.258.196.584.196.978V14.5h-.713v-2.898c0-.364-.094-.648-.284-.85-.189-.206-.448-.309-.778-.309-.228 0-.43.05-.61.148a1.059 1.059 0 0 0-.42.432 1.43 1.43 0 0 0-.154.688Zm-25.522 9.243a1.95 1.95 0 0 0-.907-1.466c-.53-.348-1.18-.522-1.951-.522-.564 0-1.057.091-1.48.273-.418.183-.745.433-.981.752a1.802 1.802 0 0 0-.348 1.088c0 .34.08.632.242.876.166.24.377.441.634.603.257.157.526.288.808.391.282.1.54.18.777.243l1.292.348c.332.087.7.207 1.106.36.41.154.802.363 1.175.628.377.26.688.597.932 1.007.245.41.367.913.367 1.51a3.35 3.35 0 0 1-.54 1.864c-.357.555-.88.997-1.567 1.324-.683.327-1.514.49-2.492.49-.911 0-1.7-.146-2.367-.44-.663-.295-1.185-.705-1.567-1.231-.377-.526-.59-1.137-.64-1.833h1.591c.042.48.203.878.485 1.193.286.31.646.543 1.081.696.44.15.912.224 1.417.224a4.17 4.17 0 0 0 1.585-.286c.468-.195.839-.464 1.112-.808a1.91 1.91 0 0 0 .41-1.218c0-.423-.118-.767-.354-1.032a2.6 2.6 0 0 0-.932-.646 9.782 9.782 0 0 0-1.25-.435l-1.565-.448c-.994-.285-1.782-.693-2.362-1.224-.58-.53-.87-1.224-.87-2.082 0-.712.193-1.334.578-1.864.39-.534.912-.949 1.566-1.243.66-.298 1.394-.447 2.207-.447.82 0 1.549.147 2.187.44.638.291 1.143.689 1.516 1.194.377.506.576 1.08.597 1.721H46.5Zm7.902 0v1.243h-4.947v-1.242h4.947Zm-3.505-2.286h1.467v9.098c0 .414.06.725.18.932.124.203.282.34.472.41.195.066.4.1.616.1.161 0 .294-.009.397-.025l.249-.05.298 1.317c-.1.038-.238.075-.416.112a3.06 3.06 0 0 1-.678.062c-.414 0-.82-.089-1.217-.267a2.42 2.42 0 0 1-.982-.814c-.257-.365-.386-.825-.386-1.38v-9.495ZM56.36 30.5v-9.546h1.467V30.5H56.36Zm.746-11.136c-.286 0-.532-.098-.74-.292a.939.939 0 0 1-.304-.703.94.94 0 0 1 .305-.702 1.04 1.04 0 0 1 .74-.292c.285 0 .53.097.733.292a.93.93 0 0 1 .31.702.93.93 0 0 1-.31.703 1.021 1.021 0 0 1-.734.292Zm7.309 1.59v1.243h-4.947v-1.242h4.947Zm-3.505-2.286h1.466v9.098c0 .414.06.725.18.932.125.203.282.34.473.41.194.066.4.1.615.1.161 0 .294-.009.398-.025l.248-.05.299 1.317c-.1.038-.239.075-.417.112a3.062 3.062 0 0 1-.677.062c-.414 0-.82-.089-1.218-.267a2.42 2.42 0 0 1-.982-.814c-.257-.365-.385-.825-.385-1.38v-9.495Zm9.236 12.03c-.895 0-1.665-.21-2.312-.633a4.137 4.137 0 0 1-1.491-1.746c-.348-.742-.522-1.59-.522-2.542 0-.97.178-1.825.534-2.567.36-.745.862-1.327 1.504-1.746.646-.422 1.4-.634 2.262-.634.671 0 1.276.125 1.815.373.538.249.98.597 1.323 1.044.344.448.558.97.64 1.566h-1.466c-.112-.435-.36-.82-.746-1.156-.381-.34-.895-.51-1.541-.51-.572 0-1.073.15-1.504.448-.427.294-.76.71-1 1.25-.237.534-.355 1.161-.355 1.882 0 .738.116 1.38.348 1.927.237.547.568.971.995 1.274.43.302.936.453 1.516.453.381 0 .727-.066 1.038-.198a2.14 2.14 0 0 0 .789-.572 2.19 2.19 0 0 0 .46-.895h1.466a3.397 3.397 0 0 1-.615 1.522 3.44 3.44 0 0 1-1.286 1.07c-.53.26-1.148.39-1.852.39Zm7.114-5.94V30.5h-1.466V17.773h1.466v4.673h.124c.224-.493.56-.885 1.007-1.175.452-.294 1.052-.44 1.802-.44.65 0 1.22.13 1.71.39.488.258.867.653 1.137 1.188.273.53.41 1.205.41 2.026V30.5h-1.467v-5.966c0-.758-.197-1.344-.59-1.759-.39-.418-.93-.627-1.622-.627-.48 0-.912.101-1.293.304-.377.203-.675.5-.895.889-.215.39-.323.862-.323 1.417Zm12.625 5.94c-.92 0-1.713-.202-2.38-.608a4.087 4.087 0 0 1-1.535-1.715c-.356-.738-.535-1.595-.535-2.573s.179-1.84.535-2.585c.36-.75.862-1.334 1.504-1.753.646-.422 1.4-.634 2.262-.634.497 0 .988.083 1.473.249a3.65 3.65 0 0 1 1.323.808c.398.368.715.857.951 1.466.236.61.354 1.36.354 2.25v.621h-7.358v-1.267h5.867a3.13 3.13 0 0 0-.323-1.442 2.435 2.435 0 0 0-.907-1c-.39-.245-.85-.367-1.38-.367-.584 0-1.09.145-1.516.435a2.861 2.861 0 0 0-.976 1.118c-.228.46-.342.953-.342 1.48v.845c0 .72.124 1.332.373 1.833a2.69 2.69 0 0 0 1.05 1.137c.448.257.968.385 1.56.385.385 0 .733-.053 1.044-.161.315-.112.586-.278.814-.497a2.26 2.26 0 0 0 .528-.833l1.417.398c-.149.48-.4.903-.752 1.267a3.67 3.67 0 0 1-1.305.846c-.518.198-1.1.298-1.746.298Zm5.933-.198v-9.546h1.417v1.442h.1c.174-.472.489-.855.944-1.15a2.78 2.78 0 0 1 1.542-.44c.107 0 .242.002.403.006.162.004.284.01.367.018v1.492a4.356 4.356 0 0 0-.342-.056 3.36 3.36 0 0 0-.553-.044c-.464 0-.878.098-1.243.292-.36.191-.646.456-.857.796a2.145 2.145 0 0 0-.311 1.15v6.04h-1.467Z"/>
</svg>
